X:1
T:Title
%%score [ 1 2 3 4 ]
L:1/8
Q:1/4=120
M:4/4
K:Bb
V:1 treble nm="S."
V:2 treble nm="A."
V:3 treble-8 nm="T."
V:4 bass nm="B."
V:1
!mp!"^April is in my mistress' face" d2 cB c2 d2 | B2 c2 A4 | z4 d2 dd | d2 d2 e2 c2 | %4
w: A- pril is in my|mis- tress' face,|A- pril is|in my mis- tress'|
"^Thomas Morley""^(1557-1602)" d4 A4 | B4 (G2 B2) | A4 d2 cB | c2 A2 B2 c2 | A4 z2!p! A2 | %9
w: face, my|mis- tress' *|face, A- pril is|in my mis- tress'|face, And|
 BABc d2 (B2 | A4) G4 | z2"^cresc." B2 dcd=e | f4 d2"^__" !courtesy!_e2- | %13
w: Ju- ly in her eyes hath|* place,|And Ju- ly in her|eyes, her eyes|
"^___" e!>(!(dcB c4)!>)! | B4 z2!p! d2 | c2 d2 e4 | d4 z2 d2 | B2 d2 c4 |!<(! B4 d4!<)! | c4 (d4- | %20
w: * hath * * *|place. With-|in her bo-|som, with-|in her bo-|som is|Sep- tem|
 d2 c2 B2 A2 |!>(! B8) | A2!>)!!f! d2 d2 d2 | !courtesy!=f8 | z2 c2 c2 c2 | e4 e4 | B2 G2 B2 c2 | %27
w: ||ber. But in her|heart,|but in her|heart, her|heart a cold De-|
 d8- |!>(! d8 |!p! =B8!>)! | z2 d2 d2 d2 | f8 | z2 c2 c2 c2 | e4 e4 | B2 G2 B2 c2 | d8- | d8 | %37
w: cem||ber,|but in her|heart,|but in her|heart, her|heart a cold De-|cem||
 =B8 |] %38
w: ber.|
V:2
!mp! B2 AG A2 D2 | G2 (AG^F=E F2) | G4 z4 | D2 DD G2 G2 | G4 ^F4 | G4 z4 | z4 B2 AG | %7
w: A- pril is in my|mis- tress * * * *|face,|A- pril is in my|mis- tress'|face,|A- pril is|
 A2 ^F2 G2 G2 | ^F4 z2!p! =F2 | GFGA B2 (G2 | ^F4) G4 | z2"^cresc." F2 B2 B2 | A(BcA) B2 G2 | %13
w: in my mis- tress'|face, And|Ju- ly in her eyes hath|* place,|And Ju- ly|in her * * eyes, her|
!>(! F6 F2!>)! | F4 z2!p! B2 | A2 B4 A2 | B4 F4 | G2 F2 F4 |!<(! F4 B4!<)! | A4 (B4- | %20
w: eyes hath|place. With-|in her bo-|som, with-|in her bo-|som is|Sep- tem|
 B2 A2 G2 ^F2 |!>(! G8) | ^F8!>)! | z8 | z2!f! A2 A2 A2 | c4 G4 | G4 G4 | F2 D2 (G4- | %28
w: ||ber.||But in her|heart, her|heart a|cold De- cem|
!>(! G2 ^F=E F4) |!p! G2!>)! G2 G2 G2 | !courtesy!_B4 B4 | A8 | z2 A2 A2 A2 | c4 G4 | G4 G4 | %35
w: |ber, but in her|heart, her|heart,|but in her|heart, her|heart a|
 F2 D2 (G4- | G2 ^F=E F4) | G8 |] %38
w: cold De- cem||ber.|
V:3
 z8 | z8 | z4!mp! B2 AG | A2 B2 c2 (G2 | A8) | G4 d2 cB | c2 d2 B2 B2 | A2 d2 d2 e2 | d8 | z8 | %10
w: ||A- pril is|in my mis- tress'||face, A- pril is|in my mis- tress'|face, my mis- tress'|face,||
 z4 z2!p! B2 |"^cresc." dcd=e f2 B2 | c4 (B2"^__" c2-) |"^___" (cB)!>(! (B4 A2)!>)! | B4 z2!p! B2 | %15
w: And|Ju- ly in her eyes hath|place, her eyes|* * hath *|place. With-|
 f2 d2 c4 | B4 B4 | G2 B4 A2 |!<(! B4"^___" f4-!<)! |"^___" f4 f4 | d8- |!>(! d8 | %22
w: in her bo-|som, with-|in her bo-|som is|* Sep-|tem||
 d4!>)! z2!f! d2 | d2 d2 f4- | f4 f4 | c8 | z4 G4 | B4 B4 |!>(! A8 |!p! G4!>)! z2 G2 | G2 G2 d4 | %31
w: ber. But|in her heart,|* her|heart|a|cold De-|cem-|ber, but|in her heart,|
 d4 f4- | f4 f4 | c8 | z4 G4 | B4 B4 | A8 | G8 |] %38
w: but in|* her|heart|a|cold De-|cem-|ber.|
V:4
 z8 | z8 | z4!mp! G,2 ^F,=E, | ^F,2 G,2 C,2 E,2 | D,8 | z4 B,2 A,G, | A,2 ^F,2 G,2 G,2 | %7
w: ||A- pril is|in my mis- tress'|face,|A- pril is|in my mis- tress'|
 C,2 D,2 G,2 C,2 | D,8 | z8 | z2!p! D,2"^cresc." E,F,G,A, | B,4 B,4 | F,4 G,2 E,2 |!>(! F,8 | %14
w: face, my mis- tress'|face,||And Ju- ly in her|eyes hath|place, her eyes|hath|
 B,,8!>)! | z8 | z4!p! B,,4 | E,2 B,,2!<(! F,4 | B,,8!<)! | F,4 D,4 | G,8- |!>(! G,8 | D,8!>)! | %23
w: place.||With-|in her bo-|som|is Sep-|tem||ber.|
 z2!f! D,2 D,2 D,2 | F,8 | z2 C,2 C,2 C,2 | E,6 E,2 | B,,6 C,2 |!>(! D,8 |!p! G,,8-!>)! | G,,8 | %31
w: But in her|heart,|but in her|heart a|cold De-|cem-|ber,||
 z2 D,2 D,2 D,2 | F,8 | z2 C,2 C,2 C,2 | E,6 E,2 | B,,6 C,2 | D,8 | G,,8 |] %38
w: but in her|heart,|but in her|heart a|cold De-|cem-|ber.|

